img/donate.svg

<svg fill="none" height="800" viewBox="0 0 24 24" width="800" xmlns="http://www.w3.org/2000/svg">
    <g fill="#ffffff">
        <path d="m16.5 13.2871c-2.4749-2.7158-5.5-.7125-5.5 2.1124 0 2.5588 1.814 4.0349 3.3584 5.2917l.0434.0353c.1456.1184.2885.235.4272.3504.571.4754 1.121.9231 1.671.9231s1.1-.4477 1.671-.9231c1.6183-1.3473 3.829-2.8526 3.829-5.6774 0-.928-.3265-1.7674-.8526-2.3798-1.0756-1.252-2.9855-1.5562-4.6474.2674z"/>
        <path d="m8.10627 18.2468c-2.80808-2.1635-6.10627-4.7046-6.10627-9.1097 0-4.86294 5.50016-8.311636 10-3.63647 4.4998-4.675166 10-1.22647 10 3.63647 0 .83357-.1181 1.6004-.3286 2.3106-.719-.5776-1.6204-.9421-2.6194-.9477-.89-.005-1.7584.2745-2.5532.8101-1.3889-.9328-2.9559-1.0583-4.329-.3954-1.6353.7895-2.6698 2.5558-2.6698 4.4847 0 2.3052 1.1485 3.9223 2.3415 5.0943-.9473-.0753-1.89636-.8076-2.87977-1.5828-.27702-.2184-.56359-.4392-.85546-.6641z"/>
    </g>
</svg>

<?xml version="1.0" encoding="UTF-8" standalone="no"?>
<svg width="100%" height="100%" viewBox="0 0 800 800" version="1.1" xmlns="http://www.w3.org/2000/svg"
     style="fill-rule:evenodd;clip-rule:evenodd;stroke-linejoin:round;stroke-miterlimit:2;">
    <g transform="matrix(25,0,0,25,99.9996,105.353)">
        <path fill="black" d="M16.5,13.287C18.162,11.463 20.072,11.768 21.147,13.02C21.673,13.632 22,14.471 22,15.4C22,18.224 19.789,19.73 18.171,21.077C17.6,21.552 17.05,22 16.5,22C15.95,22 15.4,21.552 14.829,21.077C14.69,20.961 14.547,20.845 14.402,20.726L14.358,20.691C12.814,19.434 11,17.958 11,15.4C11,12.575 14.025,10.571 16.5,13.287ZM8.106,18.247C5.298,16.083 2,13.542 2,9.137C2,4.274 7.5,0.825 12,5.501C16.5,0.825 22,4.274 22,9.137C22,9.971 21.882,10.738 21.671,11.448C20.952,10.87 20.051,10.506 19.052,10.5C18.162,10.495 17.294,10.775 16.499,11.31C15.11,10.377 13.543,10.252 12.17,10.915C10.534,11.704 9.5,13.471 9.5,15.399C9.5,17.705 10.648,19.322 11.841,20.494C10.894,20.418 9.945,19.686 8.962,18.911C8.685,18.693 8.398,18.472 8.106,18.247Z"/>
    </g>
</svg>
